X:5259
T:Pride of Rathmore, The
O:england
R:reel
N:See also #258
D:Maire O'Keefe
M:C|
K:Em
~E3F G2EF|GEAG FDDF|EDEF GFGA|1 Bded Be~e2:|2 Bded BE~E2||
~e3d Bdef|geag fd~d2|efed Bdeg|fedf e3d|
(3Bcd ed Bdef|geag fd~d2|~g3e dege|Bded BEED||


